svg/u1f539.svg

<svg viewBox="0 0 128 128" xmlns="http://www.w3.org/2000/svg">
  <g>
    <path d="M65.9,43.5l18.5,18.4c1.1,1.1,1,2.9-0.1,3.9L65.9,84.4c-1.1,1.1-2.9,1.1-4,0L43.5,65.9 c-1.1-1.1-1.1-2.8-0.1-3.9l18.5-18.4C63,42.4,64.8,42.4,65.9,43.5z" fill="#1976D2"/>
    <path d="M62.9,46.1L79,62.2c0.9,1,0.9,2.5-0.1,3.4l-16,16.2c-1,1-2.5,1-3.5,0L43.3,65.7 c-1-0.9-1-2.5-0.1-3.4l16.2-16.1C60.4,45.2,61.9,45.2,62.9,46.1z" fill="#2196F3"/>
    <path d="M60,47.5C59.5,47.9,48.3,59,48.3,59s-0.9,0.8-0.3,1.7c0.6,0.8,1.5,0.4,2,0s10.5-10.3,10.9-10.8 s0.5-1.4,0.2-1.9C60.9,47.3,60.4,47.3,60,47.5z" fill="#90CAF9"/>
    <circle cx="46.8" cy="62.7" r="1.2" fill="#90CAF9"/>
  </g>
</svg>

<svg viewBox="0 0 128 128" xmlns="http://www.w3.org/2000/svg">
  <defs/>
  <path d="M65.9,43.5 L84.4,61.9 C85.5,63 85.4,64.8 84.3,65.8 L65.9,84.4 C64.8,85.5 63,85.5 61.9,84.4 L43.5,65.9 C42.4,64.8 42.4,63.1 43.4,62 L61.9,43.6 C63,42.4 64.8,42.4 65.9,43.5 Z" fill="#1976D2"/>
  <path d="M62.9,46.1 L79,62.2 C79.9,63.2 79.9,64.7 78.9,65.6 L62.9,81.8 C61.9,82.8 60.4,82.8 59.4,81.8 L43.3,65.7 C42.3,64.8 42.3,63.2 43.2,62.3 L59.4,46.2 C60.4,45.2 61.9,45.2 62.9,46.1 Z" fill="#2196F3"/>
  <path d="M60,47.5 C59.5,47.9 48.3,59 48.3,59 C48.3,59 47.4,59.8 48,60.7 C48.6,61.5 49.5,61.1 50,60.7 C50.5,60.3 60.5,50.4 60.9,49.9 C61.3,49.4 61.4,48.5 61.1,48 C60.9,47.3 60.4,47.3 60,47.5 Z" fill="#90CAF9"/>
  <path d="M48,62.7 A1.2 1.2 0 1 1 45.6,62.7 A1.2 1.2 0 1 1 48,62.7 Z" fill="#90CAF9"/>
</svg>
